X:1
T:Title
%%score { ( 1 5 6 ) | ( 2 3 4 ) }
L:1/8
Q:1/4=92
M:3/4
K:Db
V:1 treble nm="Grand Piano"
V:5 treble 
V:6 treble 
V:2 bass 
V:3 bass 
V:4 bass 
V:1
 [DFd][Fc] [DFB][Fd] [DFc][FB] | [CGc]2 G4 | [CGc][GB] [CGA][Gc] [CGB][GA] | [DFB]2 F4 | %4
w: I.~H.~Meredith * * * * *||||
 [=DB]A [DF]B [DA]F | z2 G4[K:bass] | B2 c2 d2 | e6 | [DFd][Fc] [DFB][Fd] [DFc][FB] | [CGc]2 G4 | %10
w: ||||||
 [CGc][GB] [CGA][Gc] [CGB][GA] | [DFB]2 [DF]4 | [=DB]A [DF]_c [DB]F | z2 G4[K:bass] | %14
w: ||||
 [CG]2 [A,CF]2[K:bass] [G,CE]2 | [F,A,D]6 | [Fdf]2 z2 z [eg] | z2 [eg]4 | [Geg]2 z2 z [fa] | %19
w: |||||
 z2 [Afa]4 | [dfd']2 [cfc']2 [Bfb]2 | z2 [cgc']4 | [Bgb]2 [cac']2 [Bgb]2 | [Afa]6 | %24
w: |||||
 [Fdf]2 z2 z [eg] | z2 [eg]4 | [Geg]2 z2 z [fa] | z2 [Afa]4 | [dad']2 [dad']2 [cac']2 | z2 [Bgb]4 | %30
w: ||||||
 [Aga]2 [ege']2 [faf']2 | [dfd']6 |] %32
w: ||
V:2
 z D z D z D | z2 C4 | z C z C z C | z2 D4 | z =D z D z D | [B,E]2 [B,E]4 | %6
 [DE]D z D z[K:treble] E | A,E D2 C2 | z D z D z D | z2 C4 | z C z C z C | D,2 D,E, D,C, | %12
 z =D z D z D | [B,E]2 [B,E]4 | E,B, A,,2 A,,2 | D,6 | D,2 [F,A,D]2 z G | z E [G,A,C]2 G,2 | %18
 A,,2 [G,A,C]2 z A | z F [F,A,D]2 F,2 | D,2 [F,A,D]2 [F,A,D]2 | %21
 z[K:treble] c[K:bass] [G,A,C]2 G,2 | A,,2 [G,A,C]2 [G,A,C]2 | D,2 F,2 F,2 | D,2 [F,A,D]2 z G | %25
 z E [G,A,C]2 G,2 | A,,2 [G,A,C]2 z A | z F [F,A,D]2 F,2 | F,,2 [F,A,D]2 [F,A,D]2 | %29
 z[K:treble] d[K:bass] [G,B,D]2 G,2 | A,,2 [G,A,C]2 [G,A,C]2 | [D,D]2 [D,,D,]4 |] %32
V:3
 D,2 A,,2 D,2 | E,4 z2 | E,2 A,,2 E,2 | z2 z E, D,C, | A,,2 F,2 B,2 | E,4 z2 | %6
 =G,2 E,2 E,2[K:treble] | x6 | D,2 A,,2 D,2 | E,4 z2 | E,2 A,,2 E,2 | x6 | B,,2 F,2 B,2 | E,4 z2 | %14
 A,,2 z2 z2 | x6 | z2 z2 F,2 | A,,2 z2 z2 | z2 z2 G,2 | D,2 z2 z2 | x6 | %21
 E,2[K:treble][K:bass] z2 z2 | x6 | x6 | z2 z2 F,2 | A,,2 z2 z2 | z2 z2 G,2 | D,2 z2 z2 | x6 | %29
 G,,2[K:treble][K:bass] z2 z2 | x6 | x6 |] %32
V:4
 x6 | z2 z C, B,,A,, | x6 | D,4 z2 | x6 | x6 | x5[K:treble] x | x6 | x6 | z2 z C, B,,A,, | x6 | %11
 x6 | x6 | x6 | x6 | x6 | x6 | x6 | x6 | x6 | x6 | x[K:treble] x[K:bass] x4 | x6 | x6 | x6 | x6 | %26
 x6 | x6 | x6 | x[K:treble] x[K:bass] x4 | x6 | x6 |] %32
V:5
 x6 | x6 | x6 | x6 | x6 | A2 z[K:bass] B,, E,F, | z E [D=G]G [EG]G | [Gc][Gc] [GB]2 [GA]2 | x6 | %9
 x6 | x6 | x6 | x6 | A2 z[K:bass] B,, E,F, | x4[K:bass] x2 | x6 | z2 [Fdf]4 | [Fdf][ce] z2 [A,C]2 | %18
 z2 [Geg]4 | [Geg][df] z2 [A,D]2 | x6 | [dgd'][gc'] z2 [A,C]2 | x6 | z2 [A,D]2 [A,D]2 | z2 [Fdf]4 | %25
 [Fdf][ce] z2 [A,C]2 | z2 [Geg]4 | [Geg][df] z2 [A,D]2 | x6 | [ebe'][bd'] z2 [B,D]2 | x6 | x6 |] %32
V:6
 x6 | x6 | x6 | x6 | x6 | x3[K:bass] x3 | x6 | x6 | x6 | x6 | x6 | x6 | x6 | x3[K:bass] x3 | %14
 x4[K:bass] x2 | x6 | z2 z2 [A,D]2 | x6 | z2 z2 [A,C]2 | x6 | x6 | x6 | x6 | x6 | z2 z2 [A,D]2 | %25
 x6 | z2 z2 [A,C]2 | x6 | x6 | x6 | x6 | x6 |] %32

